packages/icons/src/rows.svg

<svg width="15" height="15" viewBox="0 0 15 15" fill="none" xmlns="http://www.w3.org/2000/svg">
  <path
    fill-rule="evenodd"
    clip-rule="evenodd"
    d="M14 12.85L1 12.85L1 14.15L14 14.15L14 12.85ZM14 8.85002L1 8.85002L1 10.15L14 10.15L14 8.85002ZM1 4.85003L14 4.85003L14 6.15003L1 6.15002L1 4.85003ZM14 0.850025L1 0.850025L1 2.15002L14 2.15002L14 0.850025Z"
    fill="currentColor"
  />
</svg>

<svg xmlns="http://www.w3.org/2000/svg" width="15" height="15" fill="none"><path fill="currentColor" fill-rule="evenodd" d="M14 12.85H1v1.3h13zm0-4H1v1.3h13zm-13-4h13v1.3H1zm13-4H1v1.3h13z" clip-rule="evenodd"/></svg>
